X:336
T:B336-  Nutmegs and Ginger
S:4th (& repeat) and last measure from bass clef
Q:1/4=120
L:1/4
M:4/4
K:C
c3/2d/cG/A/|B3/A/ G/D/ E/4^F/4G/|FE/F/ D/C/D|C,/C/ G,/C,/C:|\
zzE/F/G|zzE/F/ G/4A/4G/|FDD/D/F|zzD/C/4D/4 E/D/|\
C2c3/2G/|E3/G/ c/G/ A/G/4E/4|F/E/D/C/ D/C/D|C,/C/ G,/C,/C|]


